static/assets/img/icons/theme/devices/watch-2.svg

<svg height="24" viewBox="0 0 24 24" width="24" xmlns="http://www.w3.org/2000/svg"><g fill="none" fill-rule="evenodd"><path d="m0 0h24v24h-24z" opacity="0"/><g fill="#000"><path d="m9 17h6v3.5c0 .8284271-.6715729 1.5-1.5 1.5h-3c-.82842712 0-1.5-.6715729-1.5-1.5z" opacity=".3"/><path d="m12 17c2.7614237 0 5-2.2385763 5-5 0-2.76142375-2.2385763-5-5-5-2.76142375 0-5 2.23857625-5 5 0 2.7614237 2.23857625 5 5 5z" opacity=".3"/><path d="m10.5 2h3c.8284271 0 1.5.67157288 1.5 1.5v3.5h-6v-3.5c0-.82842712.67157288-1.5 1.5-1.5z" opacity=".3"/><path d="m12 17c2.7614237 0 5-2.2385763 5-5 0-2.76142375-2.2385763-5-5-5-2.76142375 0-5 2.23857625-5 5 0 2.7614237 2.23857625 5 5 5zm0 2c-3.86599325 0-7-3.1340068-7-7 0-3.86599325 3.13400675-7 7-7 3.8659932 0 7 3.13400675 7 7 0 3.8659932-3.1340068 7-7 7z" fill-rule="nonzero"/></g></g></svg>

<svg width="24px" height="24px" viewBox="0 0 24 24" version="1.1" xmlns="http://www.w3.org/2000/svg" xmlns:xlink="http://www.w3.org/1999/xlink">
    <title>Icon For Watch#2</title>
    <g stroke="none" stroke-width="1" fill="none" fill-rule="evenodd">
        <rect opacity="0" x="0" y="0" width="24" height="24"></rect>
        <path d="M9,17 L15,17 L15,20.5 C15,21.3284271 14.3284271,22 13.5,22 L10.5,22 C9.67157288,22 9,21.3284271 9,20.5 L9,17 Z" fill="#000000" opacity="0.3"></path>
        <path d="M12,17 C14.7614237,17 17,14.7614237 17,12 C17,9.23857625 14.7614237,7 12,7 C9.23857625,7 7,9.23857625 7,12 C7,14.7614237 9.23857625,17 12,17 Z" fill="#000000" opacity="0.3"></path>
        <path d="M10.5,2 L13.5,2 C14.3284271,2 15,2.67157288 15,3.5 L15,7 L9,7 L9,3.5 C9,2.67157288 9.67157288,2 10.5,2 Z" fill="#000000" opacity="0.3"></path>
        <path d="M12,17 C14.7614237,17 17,14.7614237 17,12 C17,9.23857625 14.7614237,7 12,7 C9.23857625,7 7,9.23857625 7,12 C7,14.7614237 9.23857625,17 12,17 Z M12,19 C8.13400675,19 5,15.8659932 5,12 C5,8.13400675 8.13400675,5 12,5 C15.8659932,5 19,8.13400675 19,12 C19,15.8659932 15.8659932,19 12,19 Z" fill="#000000" fill-rule="nonzero"></path>
    </g>
</svg>
